public/assets/images/icons/green/accept/folder-group-empty.svg

<svg width="16" height="16" xmlns="http://www.w3.org/2000/svg" viewBox="0 0 16 16" shape-rendering="geometricPrecision" fill="#00962d"><defs><mask id="a"><rect fill="#fff" width="100%" height="100%"/><path fill="#000" d="M14.258-1.414l-3.229 3.227-1.69-1.69-2.74 2.743 4.432 4.433L17 1.329z"/></mask></defs><path fill="#cb1800" d="M15.586 1.33L14.258 0l-3.229 3.228L9.34 1.539 8.013 2.867l3.018 3.019z"/><g mask="url(#a)"><path d="M7.394 4.755l-.816-1.923h-3.78l-.816 1.923H.861V14h14.278V4.755H7.394zm6.648 8.174H1.916v-7h12.125v7z"/><circle cx="6.206" cy="8.478" r=".722"/><path d="M6.535 9.543h-.66a.697.697 0 0 0-.694.696v.904H7.23v-.904a.698.698 0 0 0-.695-.696z"/><circle cx="9.8" cy="9.334" r=".722"/><path d="M10.128 10.398h-.659a.697.697 0 0 0-.694.696v.905h2.049v-.905a.698.698 0 0 0-.696-.696z"/><circle cx="7.804" cy="7.68" r=".722"/><path d="M8.828 10.345V9.44a.698.698 0 0 0-.696-.696h-.659a.695.695 0 0 0-.691.668c.357.107.62.435.62.827v.105h1.426z"/></g></svg>

<?xml version="1.0"?><!DOCTYPE svg PUBLIC "-//W3C//DTD SVG 1.1//EN" "http://www.w3.org/Graphics/SVG/1.1/DTD/svg11.dtd"><svg width="16px" height="16px" xmlns="http://www.w3.org/2000/svg" viewBox="0 0 16 16" shape-rendering="geometricPrecision" fill="#00962d"><defs><mask id="accept-path"><rect fill="#fff" width="100%" height="100%"/><polygon points="14.258,-1.414 11.029,1.813 9.339,0.123 6.599,2.866 11.031,7.299 17,1.329 " fill="#000"/></mask></defs><polygon points="15.586,1.33 14.258,0 11.029,3.228 9.34,1.539 8.013,2.867 11.031,5.886 " fill="#cb1800"/><g mask="url(#accept-path)"><path d="M7.394,4.755L6.578,2.832H2.798L1.982,4.755H0.861V14h14.278V4.755H7.394z M14.042,12.929H1.916v-7 h12.125V12.929z"/><g><circle cx="6.206" cy="8.478" r="0.722"/><path d="M6.535,9.543H5.875c-0.383,0-0.694,0.314-0.694,0.696v0.904h2.049v-0.904C7.231,9.857,6.917,9.543,6.535,9.543z"/><circle cx="9.8" cy="9.334" r="0.722"/><path d="M10.128,10.398H9.469c-0.383,0-0.694,0.314-0.694,0.696v0.905h2.049v-0.905C10.825,10.712,10.511,10.398,10.128,10.398z"/><circle cx="7.804" cy="7.68" r="0.722"/><path d="M8.828,10.345V9.44c0-0.382-0.313-0.696-0.696-0.696H7.473c-0.373,0-0.676,0.298-0.691,0.668 c0.357,0.107,0.62,0.435,0.62,0.827v0.105H8.828z"/></g></g></svg>
